!!!COM: Mendelssohn, Felix
!!!CDT: 1809/02/03-1847/11/04
!!!OPR: Sechs vierstimmige Lieder
!!!OTL: Hirtenlied
!!!OPS: Op. 88
!!!ONM: Nr. 3
!!!OMD: Andante
**kern	**text	**text	**dynam	**kern	**text	**text	**dynam	**kern	**text	**text	**dynam	**kern	**text	**text	**dynam
*part4	*part4	*part4	*part4	*part3	*part3	*part3	*part3	*part2	*part2	*part2	*part2	*part1	*part1	*part1	*part1
*staff4	*staff4	*staff4	*	*staff3	*staff3	*staff3	*	*staff2	*staff2	*staff2	*	*staff1	*staff1	*staff1	*
*I"B	*	*	*	*I"T	*	*	*	*I"A	*	*	*	*I"S	*	*	*
*clefF4	*	*	*	*clefGv2	*	*	*	*clefG2	*	*	*	*clefG2	*	*	*
*k[b-e-]	*	*	*	*k[b-e-]	*	*	*	*k[b-e-]	*	*	*	*k[b-e-]	*	*	*
*g:	*	*	*	*g:	*	*	*	*g:	*	*	*	*g:	*	*	*
*M2/4	*	*	*	*M2/4	*	*	*	*M2/4	*	*	*	*M2/4	*	*	*
=1	=1	=1	=1	=1	=1	=1	=1	=1	=1	=1	=1	=1	=1	=1	=1
8D	1.O	2.Und	p	8D	1.O	2.Und	p	8d	1.O	2.Und	p	8d	1.O	2.Und	p
=	=	=	=	=	=	=	=	=	=	=	=	=	=	=	=
8G	Win-	geh’	.	8B-	Win-	geh’	.	8g	Win-	geh’	.	8dd	Win-	geh’	.
8G	-ter,	ich	.	8B-	-ter,	ich	.	8d	-ter,	ich	.	8b-	-ter,	ich	.
8G	schlim-	auch	.	8c	schlim-	auch	.	8e-	schlim-	auch	.	8a	schlim-	auch	.
8G	-mer	-vor	.	(16dLL	-mer	vor-	.	8d	-mer	-vor	.	(16b-LL	-mer	-vor	.
.	.	.	.	16cJJ)	.	.	.	.	.	.	.	16aJJ)	.	.	.
=	=	=	=	=	=	=	=	=	=	=	=	=	=	=	=
4G	Win-	ü-	.	4B-	Win-	-ü-	.	4d	Win-	ü-	.	4g	Win-	ü-	.
8G	-ter,	-ber	.	8B-	-ter,	-ber	.	8d	-ter,	-ber	.	8d	-ter,	-ber	.
8G	wie	mei-	.	(16B-LL	wie	an	.	8d	wie	an	.	8d	wie	an	.
.	.	.	.	16cJJ)	.	.	.	.	.	.	.	.	.	.	.
=	=	=	=	=	=	=	=	=	=	=	=	=	=	=	=
8.G	ist	-ner	.	4B-	ist	mei-	<	8.d	ist	mei-	.	8.g	ist	mei-	.
16G	die	Lieb-	<	.	.	.	.	16d	die	-ner	<	16a	die	-ner	<
8G	Welt	-sten	.	4B-	die	-ner	[[	8d	Welt	Lieb-	.	8b-	Welt	Lieb-	.
8G	so	Haus,	[[	.	.	.	.	8en	so	-sten	[[	8cc	so	-sten	[[
=	=	=	=	=	=	=	=	=	=	=	=	=	=	=	=
4D	klein!	.	.	8A	Welt	Lieb-	.	4f#X	klein!	Haus,	.	4dd	klein!	Haus,	.
.	.	.	.	8D	so	-sten	p	.	.	.	.	.	.	.	.
4r	.	.	.	4d	klein!	Haus,	.	8r	.	.	.	8r	.	.	.
.	.	.	.	.	.	.	.	8f#	Du	kaum	.	8dd	Du	kaum	.
=	=	=	=	=	=	=	=	=	=	=	=	=	=	=	=
2r	.	.	.	[2d	.	.	.	8g	drängst	sieht	p	8ee-	drängst	sieht	p
.	.	.	.	.	.	.	.	8f#X	uns	sie	.	8dd	uns	sie	.
.	.	.	.	.	.	.	.	8a	all’	mit	.	8cc	all’	mit	.
*	*	*	*	*	*	*	*	*^	*	*	*	*^	*	*	*
.	.	.	.	.	.	.	.	16g	8g	in	dem	.	16b-	(16b-LL	in	dem	.
.	.	.	.	.	.	.	.	16g	.	die	.	.	16cc	16ccJJ)	die	.	.
*	*	*	*	*	*	*	*	*v	*v	*	*	*	*	*	*	*	*
*	*	*	*	*	*	*	*	*	*	*	*	*v	*v	*	*	*
=	=	=	=	=	=	=	=	=	=	=	=	=	=	=	=
2r	.	.	.	8d]	.	.	.	8f#X	Tä-	Köpf-	.	8dd	Tä-	Köpf-	.
.	.	.	.	8D	Du	kaum	.	8f#	-ler,	-chen,	.	8a	-ler,	-chen,	.
.	.	.	.	[4d	drängst	sieht	.	8r	.	.	.	8r	.	.	.
.	.	.	.	.	.	.	.	8f#	du	kaum	.	8dd	du	kaum	.
=	=	=	=	=	=	=	=	=	=	=	=	=	=	=	=
4r	.	.	.	2d_	.	.	.	8g	drängst	sieht	.	8ee-	drängst	sieht	.
.	.	.	.	.	.	.	.	8f#X	uns	sie	.	8dd	uns	sie	.
8r	.	.	.	.	.	.	.	8a	all’	mit	.	8cc	all’	mit	.
*	*	*	*	*	*	*	*	*^	*	*	*	*^	*	*	*
8D	Du	kaum	p	.	.	.	.	16g	(16gLL	in	dem	.	16b-	(16b-LL	in	dem	.
.	.	.	.	.	.	.	.	16a	16aJJ)	die	.	.	16cc	16ccJJ)	die	.	.
*	*	*	*	*	*	*	*	*v	*v	*	*	*	*	*	*	*	*
*	*	*	*	*	*	*	*	*	*	*	*	*v	*v	*	*	*
=	=	=	=	=	=	=	=	=	=	=	=	=	=	=	=
4G	drängst	sieht	.	4d]	.	.	.	8b-	Tä-	Köpf-	.	8dd	Tä-	Köpf-	.
.	.	.	.	.	.	.	.	4g	-ler,	-chen,	.	4b-	-ler,	-chen,	.
4G	uns	sie	.	4d	uns	sie	.	.	.	.	.	.	.	.	.
*	*	*	*	*	*	*	*	*^	*	*	*	*^	*	*	*
.	.	.	.	.	.	.	.	16g	(16gLL	in	zum	.	16g	(16gLL	in	zum	.
.	.	.	.	.	.	.	.	16f#X	16f#JJ)	die	.	.	16a	16aJJ)	die	.	.
*	*	*	*	*	*	*	*	*v	*v	*	*	*	*	*	*	*	*
*	*	*	*	*	*	*	*	*	*	*	*	*v	*v	*	*	*
=	=	=	=	=	=	=	=	=	=	=	=	=	=	=	=
4G	all’	mit	<	4d	all’	mit	<	8g	en-	klei-	<	8b-	en-	klei-	<
.	.	.	.	.	.	.	.	8a	-gen	-nen	.	8cc	-gen	-nen	.
*	*	*	*	*^	*	*	*	*	*	*	*	*	*	*	*
8F	in	dem	.	8G	(8GL	in	dem	.	8b-	Hüt-	Fen-	.	8dd	Hüt-	Fen-	.
*B-:	*	*	*	*B-:	*B:-	*	*	*	*B-:	*	*	*	*B-:	*	*	*
8E-	die	.	.	8g	8gJ)	die	.	.	16b-	-ten	-ster	.	16dd	-ten	-ster	.
.	.	.	.	.	.	.	.	.	16cc	hin	her	.	16ee-	hin	her	.
*	*	*	*	*v	*v	*	*	*	*	*	*	*	*	*	*	*
=	=	=	=	=	=	=	=	=	=	=	=	=	=	=	=
2B-	Tä-	Köpf-	sf	2f	Tä-	Köpf-	sf	((4.dd	-ein,	-aus	sf	((4.ff	-ein,	-aus	sf
.	.	.	.	.	.	.	.	8cc	.	.	.	8ee-	.	.	.
=	=	=	=	=	=	=	=	=	=	=	=	=	=	=	=
8B-	-ler,	-chen,	.	8B-	-ler,	-chen,	.	8b-)	.	.	.	8dd)	.	.	.
8r	.	.	.	8r	.	.	.	16a)	in	.	.	16cc)	in	.	.
.	.	.	.	.	.	.	.	16g	die	zum	>	16b-	die	zum	>
*g:	*	*	*	*g:	*	*	*	*g:	*	*	*	*g:	*	*	*
*	*	*	*	*^	*	*	*	*	*	*	*	*	*	*	*
*^	*	*	*	*	*	*	*	*	*	*	*	*	*	*	*	*
8.D	4D	in	zum	p	8.D	4D	in	zum	p	8b-	Hüt-	Fen-	.	8dd	Hüt-	Fen-	.
.	.	.	.	.	.	.	.	.	.	16a	-ten	-ster	.	16cc	-ten	-ster	.
16D	.	die	.	.	16D	.	die	.	.	16f#X	hin-	her-	.	16a	hin-	her-	.
*	*	*	*	*	*v	*v	*	*	*	*	*	*	*	*	*	*	*
*v	*v	*	*	*	*	*	*	*	*	*	*	*	*	*	*	*

=	=	=	=	=	=	=	=	=	=	=	=	=	=	=	=
8B-	en-	klei-	.	8d	en-	klei-	.	8g	-ein,	-aus,	.	8g	-ein,	-aus,	.
(16ALL	-gen	-nen	.	(16cLL	-gen	-nen	.	8r	.	.	.	8r	.	.	.
16GJJ)	.	.	.	16B-JJ)	.	.	.	.	.	.	.	.	.	.	.
*	*	*	*	*	*	*	*	*^	*	*	*	*^	*	*	*
!	!	!	!	!	!	!	!	!	!	!	!	!LO:DY:a	!	!	!	!	!LO:DY:a
8B-	Hüt-	Fen-	.	8d	Hüt-	Fen-	.	8.d	4d	in	zum	p	8.d	4d	in	zum	p
16A	-ten	-ster	.	16c	-ten	-ster	.	.	.	.	.	.	.	.	.	.	.
16F#X	hin	her	.	16A	hin-	her-	.	16d	.	die	.	.	16d	.	die	.	.
*	*	*	*	*	*	*	*	*v	*v	*	*	*	*	*	*	*	*
*	*	*	*	*	*	*	*	*	*	*	*	*v	*v	*	*	*
=	=	=	=	=	=	=	=	=	=	=	=	=	=	=	=
8G	-ein,	-aus,	.	4G	-ein,	-aus,	.	8b-	.	.	.	8dd	en-	klei-	.
8r	.	.	.	.	.	.	.	(16aLL	.	.	.	(16ccLL	-gen	-nen	.
.	.	.	.	.	.	.	.	16gJJ)	.	.	.	16b-JJ)	.	.	.
4D	hin-	her-	pp	(8AL	hin-	her-	pp	8f#X	.	.	pp	8dd	Hüt-	Fen-	pp
.	.	.	.	8cJ)	.	.	.	16f#	.	.	.	16cc	-ten	-ster	.
.	.	.	.	.	.	.	.	16f#	.	.	.	16a	hin-	her-	.
=	=	=	=	=	=	=	=	=	=	=	=	=	=	=	=
4.GG	-ein.	-aus.	.	4.B-	-ein.	-aus.	.	4.g	.	.	.	4.g	-ein.	-aus.	.
=:|!	=:|!	=:|!	=:|!	=:|!	=:|!	=:|!	=:|!	=:|!	=:|!	=:|!	=:|!	=:|!	=:|!	=:|!	=:|!
*k[f#]	*	*	*	*k[f#]	*	*	*	*k[f#]	*	*	*	*k[f#]	*	*	*
*G:	*	*	*	*G:	*	*	*	*G:	*	*	*	*G:	*	*	*
8D	3.O	.	f	8D	3.O	.	f	8d	3.O	.	f	8d	3.O	.	f
=	=	=	=	=	=	=	=	=	=	=	=	=	=	=	=
8G	Som-	.	.	8B	Som-	.	.	8g	Som-	.	.	8dd	Som-	.	.
8G	-mer,	.	.	8B	-mer,	.	.	8d	-mer,	.	.	8b	-mer,	.	.
8G	schön-	.	.	8B	schön-	.	.	8d	schön-	.	.	8g	schön-	.	.
8G	-er	.	.	8G	-er	.	.	8c	-er	.	.	(16eLL	-er	.	.
.	.	.	.	.	.	.	.	.	.	.	.	16f#JJ)	.	.	.
=	=	=	=	=	=	=	=	=	=	=	=	=	=	=	=
4G	Som-	.	.	4G	Som-	.	.	4c	Som-	.	.	4e	Som-	.	.
8G	-mer,	.	.	8G	-mer,	.	.	8B	-mer,	.	.	8d	-mer,	.	.
8G	wie	.	.	8A	wie	.	.	8d	wie	.	.	8d	wie	.	.
=	=	=	=	=	=	=	=	=	=	=	=	=	=	=	=
8G	wird	.	.	8B	wird	.	.	8d	wird	.	.	8g	wird	.	.
8G	die	.	.	8d	die	.	.	8g	die	.	.	8b	die	.	.
8GG	Welt	.	sf	8.g	Welt	.	sf	8.b	Welt	.	sf	8.dd	Welt	.	sf
8BB	so	.	.	.	.	.	.	.	.	.	.	.	.	.	.
.	.	.	.	16d	so	.	.	16g	so	.	.	16b	so	.	.
=	=	=	=	=	=	=	=	=	=	=	=	=	=	=	=
8D	weit!	.	.	8d	weit!	.	.	4f#	weit!	.	.	4a	weit!	.	.
8D	Je	.	.	8A	Je	.	.	.	.	.	.	.	.	.	.
*D:	*	*	*	*D:	*	*	*	*D:	*	*	*	*D:	*	*	*
[4D	hö-	.	sf	[4A	hö-	.	sf	8r	.	.	.	8r	.	.	.
.	.	.	.	.	.	.	.	8f#	Je	.	.	8a	Je	.	.
=	=	=	=	=	=	=	=	=	=	=	=	=	=	=	=
4D]	.	.	.	4A]	.	.	.	8f#	hö-	.	.	8dd	hö-	.	.
.	.	.	.	.	.	.	.	16f#	-her	.	.	16a	-her	.	.
.	.	.	.	.	.	.	.	16f#	man	.	.	16a	man	.	.
8.AA	-her	.	.	8.c#X	-her	.	.	8a	steigt	.	.	8ff#	steigt	.	.
.	.	.	.	.	.	.	.	16g	auf	.	.	16ee	auf	.	.
16AA	man	.	.	16c#	man	.	.	16f#	die	.	.	16dd	die	.	.
=	=	=	=	=	=	=	=	=	=	=	=	=	=	=	=
8D	steigt	.	.	8d	steigt	.	.	4f#	Ber-	.	.	4dd	Ber-	.	.
16D	auf	.	.	16A	auf	.	.	.	.	.	.	.	.	.	.
16D	die	.	.	16A	die	.	.	.	.	.	.	.	.	.	.
[4D	Ber-	.	.	([4A	Ber-	.	.	8f#	-ge,	.	.	8dd	-ge,	.	.
.	.	.	.	.	.	.	.	8g	je	.	.	8a	je	.	.
=	=	=	=	=	=	=	=	=	=	=	=	=	=	=	=
4D]	.	.	.	8AL]	.	.	.	8f#	wei-	.	.	8dd	wei-	.	.
.	.	.	.	8d	.	.	.	8f#	-ter	.	.	8a	-ter	.	.
4AA	.	.	.	8f#	.	.	.	8a	sie	.	.	8a	sie	.	.
.	.	.	.	16eL	.	.	.	16g	sich	.	.	16cc#X	sich	.	.
.	.	.	.	16dJJ)	.	.	.	16f#	ver-	.	.	16dd	ver-	.	.
=	=	=	=	=	=	=	=	=	=	=	=	=	=	=	=
4D	-ge,	.	<	4d	-ge,	.	<	4f#	-breit’,	.	<	4.dd	-breit’,	.	<
*C:	*	*	*	*C:	*	*	*	*C:	*	*	*	*C:	*	*	*
4G	je	.	[[	4B	je	.	[[	4fn	je	.	[[	.	.	.	.
.	.	.	.	.	.	.	.	.	.	.	.	8g	je	.	[[
=	=	=	=	=	=	=	=	=	=	=	=	=	=	=	=
8C	hö-	.	f	8c	hö-	.	f	8e	hö-	.	f	8g	hö-	.	f
16C	-her	.	.	16G	-her	.	.	16e	-her	.	.	16g	-her	.	.
16C	man	.	.	16G	man	.	.	16e	man	.	.	16g	man	.	.
8C	steigt	.	.	8c	steigt	.	.	8g	steigt	.	.	8cc	steigt	.	.
16C	auf	.	.	16e	auf	.	.	16cc	auf	.	.	16ee	auf	.	.
16C	die	.	.	16e	die	.	.	16cc	die	.	.	16ee	die	.	.
=	=	=	=	=	=	=	=	=	=	=	=	=	=	=	=
4c;	Ber-	.	.	4g;	Ber-	.	.	4ee;	Ber-	.	.	4gg;	Ber-	.	.
8C;	-ge,	.	.	8e;	-ge,	.	.	8cc;	-ge,	.	.	8ee;	-ge,	.	.
8r	.	.	.	8r	.	.	.	8cc	je	.	p	8ee	je	.	p
=	=	=	=	=	=	=	=	=	=	=	=	=	=	=	=
4r	.	.	.	4r	.	.	.	8b	wei-	.	.	8dd	wei-	.	.
.	.	.	.	.	.	.	.	8g	-ter	.	.	8b	-ter	.	.
8r	.	.	.	8r	.	.	.	8d	sie	.	.	8a	sie	.	.
*G:	*	*	*	*G:	*	*	*	*G:	*	*	*	*G:	*	*	*
8D	je	.	p	8D	je	.	p	16g	sich	.	.	16b	sich	.	.
.	.	.	.	.	.	.	.	16d	ver-	.	.	16a	ver-	.	.
=	=	=	=	=	=	=	=	=	=	=	=	=	=	=	=
8B	wei-	.	.	8d	wei-	.	.	4d	-breit’,	.	.	4g	-breit’,	.	.
8G	-ter	.	.	8B	-ter	.	.	.	.	.	.	.	.	.	.
8D	sie	.	.	8A	sie	.	.	8r	.	.	.	8r	.	.	.
16G	sich	.	.	16B	sich	.	.	8d	je	.	.	8d	je	.	.
16D	ver-	.	.	16A	ver-	.	.	.	.	.	.	.	.	.	.
=	=	=	=	=	=	=	=	=	=	=	=	=	=	=	=
8BB	-breit’,	.	.	8G	-breit’,	.	.	8g	wei-	.	.	8dd	wei-	.	.
8r	.	.	.	8r	.	.	.	8d	-ter	.	>	8b	-ter	.	>
4D	ver-	.	pp	8c	sie	.	pp	8d	sie	.	pp	8a	sie	.	pp
.	.	.	.	16d	sich	.	.	16d	sich	.	.	16b	sich	.	.
.	.	.	.	16c	ver-	.	.	16d	ver-	.	.	16a	ver-	.	.
=	=	=	=	=	=	=	=	=	=	=	=	=	=	=	=
4GG	-breit’.	.	.	4B	-breit’.	.	.	4d	-breit’.	.	.	4g	-breit’.	.	.
8r;	.	.	.	8r;	.	.	.	8r;	.	.	.	8r;	.	.	.
=||	=||	=||	=||	=||	=||	=||	=||	=||	=||	=||	=||	=||	=||	=||	=||
8D	4.Und	.	pp	8D	4.Und	.	pp	8d	4.Und	.	pp	8d	4.Und	.	pp
=	=	=	=	=	=	=	=	=	=	=	=	=	=	=	=
8GG	halt’	.	.	8B	halt’	.	.	8d	halt’	.	.	8dd	halt’	.	.
8GG	ich	.	.	8B	ich	.	.	8d	ich	.	.	8b	ich	.	.
8GG	dich	.	.	8B	dich	.	.	8d	dich	.	.	8g	dich	.	.
16GG	in	.	.	16A	in	.	.	16c#X	in	.	.	16e	in	.	.
16GG	den	.	.	16A	den	.	.	16c#	den	.	.	16f#	den	.	.
=	=	=	=	=	=	=	=	=	=	=	=	=	=	=	=
4GG	Ar-	.	.	(8.AL	Ar-	.	.	4c#X	Ar-	.	.	4e	Ar-	.	.
.	.	.	.	16GJk)	.	.	.	.	.	.	.	.	.	.	.
8GG	-men	.	.	8F#	-men	.	.	8cn	-men	.	.	8d	-men	.	.
8GG	auf	.	.	8F#	auf	.	.	8c	auf	.	.	8d	auf	.	.
=	=	=	=	=	=	=	=	=	=	=	=	=	=	=	=
8GG	frei-	.	.	8G	frei-	.	.	8B	frei-	.	.	8g	frei-	.	.
8GG	-en	.	.	8G	-en	.	.	8d	-en	.	.	8b	-en	.	.
8.GG	Ber-	.	.	8.B	Ber-	.	.	8.g	Ber-	.	.	8.dd	Ber-	.	.
16BB	-ges-	.	.	16G	-ges-	.	.	16d	-ges-	.	.	16b	-ges-	.	.
=	=	=	=	=	=	=	=	=	=	=	=	=	=	=	=
4.D	-höh’n,	.	.	8F#	-höh’n,	.	.	4d	-höh’n,	.	.	4a	-höh’n,	.	.
.	.	.	.	8A	wir	.	.	.	.	.	.	.	.	.	.
*D:	*	*	*	*D:	*	*	*	*D:	*	*	*	*D:	*	*	*
.	.	.	.	[4A	seh’n	.	.	8r	.	.	.	8r	.	.	.
8F#	wir	.	.	.	.	.	.	8d	wir	.	.	8a	wir	.	.
=	=	=	=	=	=	=	=	=	=	=	=	=	=	=	=
4A	seh’n	.	.	4A]	.	.	.	8f#	seh’n	.	.	8dd	seh’n	.	.
.	.	.	.	.	.	.	.	16f#	in	.	.	16a	in	.	.
.	.	.	.	.	.	.	.	16f#	die	.	.	16a	die	.	.
8.AA	in	.	.	8.c#X	in	.	.	8a	wei-	.	.	8ff#	wei-	.	.
.	.	.	.	.	.	.	.	(16gLL	-ten	.	.	(16eeLL	-ten	.	.
16AA	die	.	.	16d	die	.	.	16f#JJ)	.	.	.	16ddJJ)	.	.	.
=	=	=	=	=	=	=	=	=	=	=	=	=	=	=	=
4.D	wei-	.	.	8d	wei-	.	.	4f#	Lan-	.	.	4dd	Lan-	.	.
.	.	.	.	8A	-ten	.	.	.	.	.	.	.	.	.	.
.	.	.	.	([4A	Lan-	.	.	8f#	-de	.	.	8dd	-de	.	.
8F#	-ten	.	.	.	.	.	.	8d	und	.	.	8a	und	.	.
=	=	=	=	=	=	=	=	=	=	=	=	=	=	=	=
2A	Lan-	.	.	8AL]	.	.	.	8f#	wer-	.	.	8dd	wer-	.	.
.	.	.	.	8d	.	.	.	8f#	-den	.	.	8a	-den	.	.
.	.	.	.	8f#	.	.	.	8a	doch	.	.	8a	doch	.	.
.	.	.	.	16eL	.	.	.	16g	nicht	.	.	16cc#X	nicht	.	.
.	.	.	.	16dJJ)	.	.	.	16f#	ge-	.	.	16dd	ge-	.	.
=	=	=	=	=	=	=	=	=	=	=	=	=	=	=	=
4D	-de,	.	.	4d	-de,	.	.	4f#	-seh’n,	.	.	4.dd	-seh’n,	.	.
*C:	*	*	*	*C:	*	*	*	*C:	*	*	*	*C:	*	*	*
4G	wir	.	<	4B	wir	.	<	4fn	wir	.	<	.	.	.	.
.	.	.	.	.	.	.	.	.	.	.	.	8g	wir	.	<
=	=	=	=	=	=	=	=	=	=	=	=	=	=	=	=
8C	seh’n	.	.	8c	seh’n	.	.	8e	seh’n	.	.	8g	seh’n	.	.
16C	in	.	.	16G	in	.	.	16e	in	.	.	16g	in	.	.
16C	die	.	.	16G	die	.	.	16e	die	.	.	16g	die	.	.
8C	wei-	.	.	8c	wei-	.	.	8g	wei-	.	.	8cc	wei-	.	.
8C	-ten	.	.	8e	-ten	.	.	8cc	-ten	.	.	8ee	-ten	.	.
=	=	=	=	=	=	=	=	=	=	=	=	=	=	=	=
4c;	Lan-	.	f	4g;	Lan-	.	f	4ee;	Lan-	.	f	4gg;	Lan-	.	f
8C;	-de	.	.	8e;	-de	.	.	8cc;	-de	.	.	8ee;	-de	.	.
8r	.	.	.	8r	.	.	.	8cc	und	.	p	8ee	und	.	p
=	=	=	=	=	=	=	=	=	=	=	=	=	=	=	=
4r	.	.	.	4r	.	.	.	8b	wer-	.	.	8dd	wer-	.	.
.	.	.	.	.	.	.	.	8g	-den	.	.	8b	-den	.	.
8r	.	.	.	8r	.	.	.	8d	doch	.	.	8a	doch	.	.
*G:	*	*	*	*G:	*	*	*	*G:	*	*	*	*G:	*	*	*
8D	und	.	p	8D	und	.	p	16g	nicht	.	.	16b	nicht	.	.
.	.	.	.	.	.	.	.	16d	ge-	.	.	16a	ge-	.	.
=	=	=	=	=	=	=	=	=	=	=	=	=	=	=	=
8B	wer-	.	.	8d	wer-	.	.	4d	-seh’n,	.	.	4g	-seh’n,	.	.
8G	-den	.	.	8B	-den	.	.	.	.	.	.	.	.	.	.
8D	doch	.	.	8A	doch	.	.	8r	.	.	.	8r	.	.	.
16G	nicht	.	.	16B	nicht	.	.	8d	.	.	.	8d	und	.	.
16D	ge-	.	.	16A	ge-	.	.	.	.	.	.	.	.	.	.
=	=	=	=	=	=	=	=	=	=	=	=	=	=	=	=
8BB	-seh’n,	.	.	8G	-seh’n,	.	.	(8gL	wer-	.	.	8dd	wer-	.	.
8r	.	.	.	8r	.	.	.	8dJ)	.	.	.	8b	-den	.	.
4D	ge-	.	>	4c	und	.	>	4d	-den,	.	>	8a	doch	.	>
.	.	.	.	.	.	.	.	.	.	.	.	16b	nicht	.	.
.	.	.	.	.	.	.	.	.	.	.	.	16a	ge-	.	.
=	=	=	=	=	=	=	=	=	=	=	=	=	=	=	=
[2GG [2G	-seh’n.	.	.	8B	wer-	.	.	8d	wer-	.	.	[2g	-seh’n.	.	.
.	.	.	.	8B	-den	.	.	8d	-den	.	.	.	.	.	.
.	.	.	.	8c	doch	.	.	8e	doch	.	.	.	.	.	.
.	.	.	.	16d	nicht	.	.	16d	nicht	.	.	.	.	.	.
.	.	.	.	16c	ge-	.	.	16e	ge-	.	.	.	.	.	.
=	=	=	=	=	=	=	=	=	=	=	=	=	=	=	=
2GG_ 2G_	.	.	<[	4c	-seh’n,	.	.	4e	-seh’n,	.	.	2g_	.	.	<[
.	.	.	.	8c	doch	.	<	8e	doch	.	<	.	.	.	.
.	.	.	.	16d	nicht	.	.	16d	nicht	.	.	.	.	.	.
.	.	.	.	16c	ge-	.	[[	16e	ge-	.	[[	.	.	.	.
=	=	=	=	=	=	=	=	=	=	=	=	=	=	=	=
2GG_ 2G_	.	.	>]	4c	-seh’n,	.	>	4e	-seh’n,	.	>	2g_	.	.	>]
.	.	.	.	8.c	nicht	.	.	8.d	nicht	.	.	.	.	.	.
.	.	.	.	16c	ge-	.	]	16d	ge-	.	]	.	.	.	.
=	=	=	=	=	=	=	=	=	=	=	=	=	=	=	=
2GG_ 2G_	.	.	pp	[2B	-seh’n.	.	pp	[2d	-seh’n.	.	pp	(8gL]	.	.	pp
.	.	.	.	.	.	.	.	.	.	.	.	8d	.	.	.
.	.	.	.	.	.	.	.	.	.	.	.	8b	.	.	.
.	.	.	.	.	.	.	.	.	.	.	.	8dJ	.	.	.
=	=	=	=	=	=	=	=	=	=	=	=	=	=	=	=
2GG;] 2G]	.	.	.	2B;]	.	.	.	2d;]	.	.	.	2g;)	.	.	.
==	==	==	==	==	==	==	==	==	==	==	==	==	==	==	==
*-	*-	*-	*-	*-	*-	*-	*-	*-	*-	*-	*-	*-	*-	*-	*-
!!!system-decoration: ([s1,s2,s3,s4])
!!!RDF**kern: i = editorial accidental
!!!AGN: Choral
!!!YOR: https://mdz-nbn-resolving.de/details:bsb00026635
!!!YOO: München, Bayerische Staatsbibliothek
!!!URL-scan: https://www.digitale-sammlungen.de/de/view/bsb00026635?page=6
!!!EED: Wolfgang Drescher
!!!END: 2024/11/15
!!!ENC: Wolfgang Drescher
!!!EEV: 2024/11/15
!!!title: @{OPS} @{ONM}. @{OTL}